!!!COM: Haydn, Franz Joseph
!!!OTL: String Quartet in C Major
!!!OPS: Opus 50
!!!ONM: No. 2
!!!OMD: Finale: Vivace assai
!!!OMV: 4
!!!SCT: H III:45
!!!SCA: Thematisch-bibliographisches Werkevererzeichnis (A. van Hoboken)
!!!YOR: Trautwein Edition
!!!ENC: Frances Bennion
!!!CDT: 1732/3/31/-1809/5/31/
!!!CNT: Oesterreich
!!!YEC: Copyright (c) 1994, 2000 Center for Computer Assisted Research in the Humanities
!!!YEM: Rights to all derivative editions reserved.
!!!YEM: Refer to licensing agreement for further details.
!!!YEN: United States of America
**kern	**kern	**kern	**kern
*k[]	*k[]	*k[]	*k[]
*C:	*C:	*C:	*C:
*clefF4	*clefC3	*clefG	*clefG
*M2/4	*M2/4	*M2/4	*M2/4
4.r	4.r	4.r	4.r
8r	16c	16e	8r
.	16d	16f	.
=1	=1	=1	=1
2r	8e	8g	4.r
.	8e	8g	.
.	8e	8g	.
.	8e	8g	8cc
=2	=2	=2	=2
8r	4.f	4.g	16b
.	.	.	16cc
16G	.	.	16dd
16A	.	.	16b
8B	.	.	8g
8r	16c	16e	8r
.	16d	16f	.
=3	=3	=3	=3
2r	8e	8g	4.r
.	8e	8g	.
.	8e	8g	.
.	8e	8g	8gg
=4	=4	=4	=4
8r	4.f	4.g	16ff
.	.	.	16ee
16B	.	.	16dd
16c	.	.	16cc
8d	.	.	8b
8r	16c	16e	8r
.	16d	16f	.
=5	=5	=5	=5
2r	8e	8g	4.r
.	8e	8g	.
.	8e	8g	.
.	8e	8g	8cc
=6	=6	=6	=6
4.r	4f	4.g	16b
.	.	.	16cc
.	.	.	16dd
.	.	.	16b
.	8e	.	8cc
8C	8c	8G	8ee
=7	=7	=7	=7
8D	8c	4A	4g
8D	16B	.	.
.	16c	.	.
8GG	8d	4B	8.f
8GG	8d	.	.
.	.	.	32e
.	.	.	32f
=8	=8	=8	=8
16CC	4c	4c	4e
16C	.	.	.
16BB	.	.	.
16C	.	.	.
16D	8r	4r	8r
16C	.	.	.
16BB	16E	.	16cc
16C	16G	.	16ee
=9	=9	=9	=9
16AA	8F	8cc	8ff
16C	.	.	.
16GG	8G	8cc	8ee
16C	.	.	.
16AA	8A	8cc	8ff
16C	.	.	.
16FF	8F	8cc	8aa
16C	.	.	.
=10	=10	=10	=10
16EE	4C	4cc	16gg
16C	.	.	16aa
16DD	.	.	16ff
16C	.	.	16gg
16CC	8r	4r	8ee
16C	.	.	.
16BB-	16E	.	16cc
16C	16G	.	16ee
=11	=11	=11	=11
16AA	8F	8cc	8ff
16C	.	.	.
16GG	8G	8cc	8ee
16C	.	.	.
16AA	8A	8cc	8ff
16C	.	.	.
16FF	8F	8cc	8aa
16C	.	.	.
=12	=12	=12	=12
16EE	4C	4cc	16gg
16C	.	.	16aa
16DD	.	.	16ff
16C	.	.	16gg
16CC	8r	4r	8ee
16C	.	.	.
16BB-	16e	.	16cc
16C	16g	.	16ee
=13	=13	=13	=13
16AA	8f	8cc	8ff
16C	.	.	.
16GG	8g	8cc	8ee
16C	.	.	.
16AA	8a	8cc	8ff
16C	.	.	.
16FF	8f	8cc	8aa
16C	.	.	.
=14	=14	=14	=14
16EE	4c	4cc	8gg
16C	.	.	.
16DD	.	.	8bb
16C	.	.	.
16EE	4r	8r	8ccc
16C	.	.	.
16CC	.	8g	8eee
16C	.	.	.
=15	=15	=15	=15
8DD	8r	16a	2gg
.	.	16cc	.
8D	8a	16b	.
.	.	16cc	.
8D	8a	16dd	.
.	.	16cc	.
8D	8a	16b	.
.	.	16cc	.
=16	=16	=16	=16
8DD	8r	16a	2ff#
.	.	16cc	.
8D	8a	16b	.
.	.	16cc	.
8D	8a	16dd	.
.	.	16cc	.
8D	8a	16b	.
.	.	16cc	.
=17	=17	=17	=17
8GG	8g	8b	16ff
.	.	.	16gg
8G	8r	8r	16ff
.	.	.	16dd
8G	8d	8dd	16bb
.	.	.	16ccc
8G	8r	8r	16bb
.	.	.	16ff
=18	=18	=18	=18
8GG	8B	8ff	16ddd
.	.	.	16eee
8G	4.r	8r	16ddd
.	.	.	16bb
8G	.	8ddd	8fff
8G	.	8ddd	8fff
=19	=19	=19	=19
8GG	16B	8ddd	8fff
.	16c	.	.
8r	16B	8r	8r
.	16G	.	.
8GG	16d	8bb	8ddd
.	16e	.	.
8r	16d	8r	8r
.	16G	.	.
=20	=20	=20	=20
8GG	8f	8ff	8bb
4.r	4.r	4.r	4.r
=21	=21	=21	=21
8GG	8d	16B	8ff
.	.	16c	.
8r	8r	16B	8r
.	.	16G	.
8GG	8f	16d	8dd
.	.	16e	.
8r	8r	16d	8r
.	.	16G	.
=22	=22	=22	=22
4.GG	4.d	4.f	4.b
8r	16c	16e	8r
.	16d	16f	.
=23	=23	=23	=23
4.r	8e	8g	2r
.	8e	8g	.
.	8e	8g	.
8c	8e	8g	.
=24	=24	=24	=24
16B	4.f	4.g	2r
16c	.	.	.
16d	.	.	.
16B	.	.	.
8G	.	.	.
8r	16c	16e	.
.	16d	16f	.
=25	=25	=25	=25
2r	8e	8g	4.r
.	8e	8g	.
.	8e	8g	.
.	8e	8g	8ccc
=26	=26	=26	=26
4G	16d	16f	16bb
.	16e	16g	16ccc
.	16d	16f	16ddd
.	16c	16e	16eee
4r	8B	8d	8fff
.	16c	16e	8r
.	16d	16f	.
=27	=27	=27	=27
2r	8e	8g	4.r
.	8e	8g	.
.	8e	8g	.
.	8e	8g	8cc
=28	=28	=28	=28
2r	8d	8f	8cc
.	16d	16f	16b
.	16e	16g	16cc
.	8f	8a	8dd
.	8f	8a	8dd
=29	=29	=29	=29
2r	8e	8g	8dd
.	16e	16g	16cc#
.	16f	16a	16dd
.	8g	8b-	8ee
.	8g	8b-	8ee
=30	=30	=30	=30
2r	8f	[2a	16ee
.	.	.	16dd
.	8f	.	16ff
.	.	.	16ee
.	8f	.	16gg
.	.	.	16ff
.	8f	.	16aa
.	.	.	16gg
=31	=31	=31	=31
2r	4f	2a]	16bb-
.	.	.	16aa
.	.	.	16gg
.	.	.	16ff
.	4f#	.	16ee
.	.	.	16dd
.	.	.	16ee
.	.	.	16cc
=32	=32	=32	=32
4.r	4g	4g	16b
.	.	.	16g
.	.	.	16a
.	.	.	16b
.	8r	4r	16cc
.	.	.	16dd
16G	16B	.	16ee
16A	16c	.	16ff#
=33	=33	=33	=33
8B	8d	2r	16gg
.	.	.	16aa
8B	8d	.	16bb
.	.	.	16ccc
8B	8d	.	16ddd
.	.	.	16bb
8B	8d	.	16aa
.	.	.	16gg
=34	=34	=34	=34
4A	4c	4.r	16ff#
.	.	.	16gg
.	.	.	16aa
.	.	.	16gg
4r	8r	.	16bb
.	.	.	16aa
.	16d	16f#	16ccc
.	16e	16g	16bb
=35	=35	=35	=35
2r	8f#	8a	16ddd
.	.	.	16ccc
.	8f#	8a	16bb
.	.	.	16aa
.	8f#	8a	16gg
.	.	.	16ff#
.	8f#	8a	16ee
.	.	.	16dd
=36	=36	=36	=36
4.r	4g	4g	16cc
.	.	.	16b
.	.	.	16dd
.	.	.	16cc
.	8r	8r	16ee
.	.	.	16dd
16B	16d	16B	16gg
16A	16c	16c	16ff#
=37	=37	=37	=37
8G	8B	8d	16aa
.	.	.	16gg
8G	8B	8d	16bb
.	.	.	16gg
8G	8B	8d	16ff#
.	.	.	16ee
8E	16c#	8g	16dd
.	16e	.	16cc#
=38	=38	=38	=38
4D	4.d	4f#	16d
.	.	.	16dd
.	.	.	16ee-
.	.	.	16dd
4r	.	8r	16ee
.	.	.	16dd
.	8d	8cc	16ff#
.	.	.	16dd
=39	=39	=39	=39
4.r	16dd	16b	16gg
.	16ee	16cc	16dd
.	16cc	16a	16aa
.	16dd	16b	16dd
.	8b	8g	16bb
.	.	.	16dd
8B	8g	8r	16ddd
.	.	.	16dd
=40	=40	=40	=40
16A	8f#	4.r	16ccc
16B	.	.	16ddd
16G	8g	.	16bb
16A	.	.	16ccc
8F#	8a	.	16aa
.	.	.	16dd
8r	8d	8cc	16ee
.	.	.	16ff#
=41	=41	=41	=41
4.r	16dd	16b	16gg
.	16ee	16cc	16dd
.	16cc	16a	16aa
.	16dd	16b	16dd
.	8b	8g	16bb
.	.	.	16dd
8BB	8g	8r	16ddd
.	.	.	16dd
=42	=42	=42	=42
16AA	8f#	4.r	16ccc
16BB	.	.	16ddd
16GG	8g	.	16bb
16AA	.	.	16ccc
8FF#	8a	.	16aa
.	.	.	16dd
8r	8d	8cc	16ee
.	.	.	16ff#
=43	=43	=43	=43
4.r	16dd	16b	16gg
.	16ee	16cc	16dd
.	16cc	16a	16aa
.	16dd	16b	16dd
.	8b	8g	16bb
.	.	.	16dd
8B	8g	8r	16ddd
.	.	.	16dd
=44	=44	=44	=44
16A	8f#	4.r	16ccc
16B	.	.	16ddd
16G	8g	.	16bb
16A	.	.	16ccc
8F#	8a	.	16aa
.	.	.	16dd
8c	8d	8dd	16ee
.	.	.	16ff#
=45	=45	=45	=45
4B	8b	16gg	4gg
.	.	16aa	.
.	8a	16ff#	.
.	.	16gg	.
4r	8g	16ee	8r
.	.	16ff#	.
.	8f#	16dd	8dd
.	.	16ee	.
=46	=46	=46	=46
8e	8g	8cc	16ccc
.	.	.	16ddd
8d	8f#	4.r	16bb
.	.	.	16ccc
16c	16e	.	16aa
16d	16f#	.	16bb
16B	16d	.	16gg
16c	16e	.	16aa
=47	=47	=47	=47
16A	16c	2r	16ff#
16B	16d	.	16gg
16G	16B	.	16ee
16A	16c	.	16ff#
8F#	8A	.	16dd
.	.	.	16ee
8A	8F#	.	16cc
.	.	.	16dd
=48	=48	=48	=48
8G	[2G	4.r	16cc
.	.	.	16b
8E	.	.	16dd
.	.	.	16cc
8BB	.	.	16ee
.	.	.	16dd
8C	.	16e	16ee
.	.	16c	16gg
=49	=49	=49	=49
4D	4G]	4B	4g
4DD	4F#	8c	8a
.	.	16B	16g
.	.	16c	16a
=50	=50	=50	=50
4GG	4G	4B	4g
8r	8r	4r	4r
16G	16B	.	.
16A	16c	.	.
=51	=51	=51	=51
8B	8d	2r	2r
8B	8d	.	.
16B	16d	.	.
16G	16B	.	.
16A	16c	.	.
16B	16d	.	.
=52	=52	=52	=52
8c	8e	4.r	4.r
8c	8e	.	.
8c	8e	.	.
8r	8r	16dd	16ff#
.	.	16ee	16gg
=53	=53	=53	=53
2r	2r	8ff#	8aa
.	.	8ff#	8aa
.	.	16ff#	16aa
.	.	16dd	16ff#
.	.	16ee	16gg
.	.	16ff#	16aa
=54	=54	=54	=54
2r	4.r	8gg	8bb
.	.	8gg	8bb
.	.	8gg	8bb
.	16G	16b	8r
.	16A	16cc	.
=55	=55	=55	=55
2r	16B	16dd	4r
.	16c	16ee	.
.	16B	16dd	.
.	16c	16ee	.
.	16B	16dd	[4gg
.	16G	16b	.
.	16A	16cc	.
.	16B	16dd	.
=56	=56	=56	=56
2r	16c	16ee	8gg]
.	16d	16ff#	.
.	16c	16ee	8gg#
.	16d	16ff#	.
.	16c	16ee	[4aa
.	16A	16cc	.
.	16B	16dd	.
.	16c	16ee	.
=57	=57	=57	=57
2r	16d	16ff#	8aa]
.	16e	16gg	.
.	16d	16ff#	8aa#
.	16e	16gg	.
.	16d	16ff#	[4bb
.	16B	16dd	.
.	16c	16ee	.
.	16d	16ff#	.
=58	=58	=58	=58
2r	16e	16gg	16bb]
.	16c	16ee	16ddd
.	16d	16ff#	16ccc
.	16e	16gg	16bb
.	16f#	16aa	8aa
.	16d	16ff#	.
.	16e	16gg	8ddd
.	16f#	16aa	.
=59	=59	=59	=59
8r	4g	4.gg	4.bb
8G	.	.	.
8E	4r	.	.
8C	.	8aa	8ccc
=60	=60	=60	=60
4D	8r	4ff#	8aa
.	8dd	.	8ddd
4r	8cc#	4r	8ccc#
.	8cc	.	8ccc
=61	=61	=61	=61
2r	8b	4.gg	4.bb
.	8g	.	.
.	8e	.	.
.	8c	8aa	8ccc
=62	=62	=62	=62
2r	4d	8ff#	8aa
.	.	8dd	8ddd
.	4r	8cc#	8ccc#
.	.	8cc	8ccc
=63	=63	=63	=63
8r	8r	4.b	4.bb
8d#	8f#	.	.
8d#	8f#	.	.
8e	8g	8cc	8ccc
=64	=64	=64	=64
8c	8f#	8a	8aa
8B	8d	8gg#	8ddd
8A	8e	8aa	8ccc#
8D	8a	8ff#	8ccc
=65	=65	=65	=65
8G	8d	8gg	8bb
8c	4a	4ee	8aa
8c	.	.	8ccc
8c	8cc	8ee	8aa
=66	=66	=66	=66
[2d	8b	8dd	2gg
.	8b-	8cc#	.
.	8a	8cc	.
.	8g	8b	.
=67	=67	=67	=67
8d]	2f#	2cc	2aa
8e-	.	.	.
8d	.	.	.
8D	.	.	.
=68	=68	=68	=68
4.g	8g	4.b	4gg
.	8G	.	.
.	8E	.	4r
8a	8C	8cc	.
=69	=69	=69	=69
4f#	8D	8a	2r
.	8d	8dd	.
4r	8c#	8cc#	.
.	8c	8cc	.
=70	=70	=70	=70
8r	4B	8b	4.bb
8G	.	4gg	.
8E	4r	.	.
8C	.	8aa	8ccc
=71	=71	=71	=71
4D	2r	8ff#	8aa
.	.	8dd	8ddd
4r	.	8cc#	8ccc#
.	.	8cc	8ccc
=72	=72	=72	=72
8r	8r	4.b	4.bb
8d#	8f#	.	.
8d#	8f#	.	.
8e	8g	8cc	8ccc
=73	=73	=73	=73
8c	8f#	8a	8aa
8B	8d	8gg#	8ddd
8A	8e	8aa	8ccc#
8D	8a	8ff#	8ccc
=74	=74	=74	=74
8G	8g	8gg	8bb
8c	4a	4ee	8aa
8c	.	.	8ccc
8c	8cc	8ee	8aa
=75	=75	=75	=75
2d	8b	8dd	2gg
.	8b-	8cc#	.
.	8a	8cc	.
.	8g	8b	.
=76	=76	=76	=76
8E-	2f#	2cc	2aa
8D	.	.	.
8DD	.	.	.
8D	.	.	.
=77	=77	=77	=77
8GG	4g	4b	4gg
8GG	.	.	.
8GG	8r	8r	4r
8GG	16A	16f#	.
.	16B	16g	.
=78	=78	=78	=78
8GG	8c	8a	4.r
8GG	8c	8a	.
8GG	8c	8a	.
8GG	8c	8a	8ff#
=79	=79	=79	=79
8GG	4B	4g	16gg
.	.	.	16aa
8GG	.	.	16bb
.	.	.	16gg
8GG	8r	8r	8dd
8GG	16F#	16A	8r
.	16G	16B	.
=80	=80	=80	=80
8GG	8A	8c	4.r
8GG	8A	8c	.
8GG	8A	8c	.
8GG	8A	8c	8f#
=81	=81	=81	=81
8GG	4G	4B	16g
.	.	.	16a
8GG	.	.	16b
.	.	.	16g
8GG	8r	4r	8d
16G	16B	.	8r
16A	16c	.	.
=82	=82	=82	=82
8B	8d	2r	2r
8B	8d	.	.
8B	8d	.	.
16B	16d	.	.
16c	16e	.	.
=83	=83	=83	=83
8d	8f	4.r	4.r
8d	8f	.	.
8d	8f	.	.
8r	8r	16g	16b
.	.	16a	16cc
=84	=84	=84	=84
2r	2r	8b	8dd
.	.	8b	8dd
.	.	8b	8dd
.	.	16b	16dd
.	.	16cc	16ee
=85	=85	=85	=85
2r	2r	8dd	8ff
.	.	8dd	8ff
.	.	8dd	8ff
.	.	8r	8r
=86	=86	=86	=86
4.r	4.r	4.r	4.r
16D	16d	16d	16d
16E	16e	16e	16e
=87	=87	=87	=87
8F	8f	8f	8f
8F	8f	8f	8f
8F	8f	8f	8f
8F	8f	8f	8f
=88	=88	=88	=88
2EE	4E	2G#	4G#
.	4e	.	[4e
=89	=89	=89	=89
2FF	4c	2A	4e]
.	8A	.	4d#
.	8a	.	.
=90	=90	=90	=90
4EE	16g#	4B	4e
.	16a	.	.
.	16b	.	.
.	16g#	.	.
4r	8e	8r	8r
.	8f	8dd#	8aa
=91	=91	=91	=91
2r	4e	4ee	16gg#
.	.	.	16aa
.	.	.	16bb
.	.	.	16gg#
.	8r	8r	8ee
.	8f	8aa	8ddd#
=92	=92	=92	=92
2r	4e	16gg#	4eee
.	.	16aa	.
.	.	16bb	.
.	.	16gg#	.
.	4r	8ee	4r
.	.	8r	.
=93	=93	=93	=93
2r	2r	2r	2r
=94	=94	=94	=94
2r	4.r	2r	2r
.	16A	.	.
.	16B	.	.
=95	=95	=95	=95
8AA	16c	4.r	2r
.	16e	.	.
16c	16a	.	.
16B	16e	.	.
8A	16c	.	.
.	16e	.	.
8G#	16B	16ee	.
.	16e	16dd	.
=96	=96	=96	=96
4A	16c	8cc	4.r
.	16e	.	.
.	16a	16cc	.
.	16e	16b	.
4r	16c	8a	.
.	16e	.	.
.	16A	8r	16ccc
.	16e	.	16aa
=97	=97	=97	=97
4GG#	16B	2r	8eee
.	16d	.	.
.	16e	.	8eee
.	16d	.	.
8r	16B	.	8eee
.	16e	.	.
16G#	16B	.	8eee
16A	16c	.	.
=98	=98	=98	=98
8B	16d	8r	4ee
.	16e	.	.
8r	16g#	16b	.
.	16e	16a	.
8E	16d	8g#	8r
.	16e	.	.
8r	16g#	16ee	16ddd
.	16e	16dd	16gg#
=99	=99	=99	=99
8AA	16c	4cc	4aa
.	16e	.	.
16c	16a	.	.
16B	16e	.	.
8A	16c	8r	4r
.	16e	.	.
8G#	16B	16ee	.
.	16e	16dd	.
=100	=100	=100	=100
4A	16c	8cc	4.r
.	16e	.	.
.	16a	16cc	.
.	16e	16b	.
4r	16c	8a	.
.	16e	.	.
.	16A	8r	16ccc
.	16e	.	16aa
=101	=101	=101	=101
4GG#	16B	2r	8eee
.	16d	.	.
.	16e	.	8eee
.	16d	.	.
8r	16B	.	8eee
.	16e	.	.
16G#	16B	.	8eee
16A	16c	.	.
=102	=102	=102	=102
8B	16d	8r	4ee
.	16e	.	.
8r	16g#	16b	.
.	16e	16a	.
8E	16d	8g#	8r
.	16e	.	.
8r	16g#	16ee	16ddd
.	16e	16dd	16gg#
=103	=103	=103	=103
4A	16c	4cc	8aa
.	16e	.	.
.	16a	.	8aa
.	16e	.	.
4r	16c	8r	8aa
.	16e	.	.
.	16c	16e	8aa
.	16e	16c	.
=104	=104	=104	=104
4A	16c	4A	4a
.	16e	.	.
.	16a	.	.
.	16e	.	.
4r	16c	4r	8r
.	16e	.	.
.	16c	.	16aa
.	16e	.	16ccc
=105	=105	=105	=105
4E	16c	4.c	8bb-
.	16g	.	.
.	16b-	.	8bb-
.	16g	.	.
8r	16b-	.	8bb-
.	16g	.	.
16C	16b-	16e	8bb-
16D	16g	16f	.
=106	=106	=106	=106
4E	16c	4g	4c
.	16g	.	.
.	16b-	.	.
.	16g	.	.
4r	16b-	8r	8r
.	16g	.	.
.	16b-	16cc	16gg
.	16g	16b-	16ee
=107	=107	=107	=107
4FF	8a	16a	4ff
.	.	16cc	.
.	16a	16ff	.
.	16g	16cc	.
4r	8f	16a	8r
.	.	16cc	.
.	8e	16g	16ccc
.	.	16cc	16bb-
=108	=108	=108	=108
4F	4f	16a	8aa
.	.	16cc	.
.	.	16ff	16aa
.	.	16cc	16gg
8r	4r	16a	8ff
.	.	16cc	.
16A	.	16f	8r
16F	.	16cc	.
=109	=109	=109	=109
8c	4E	16g	2r
.	.	16b-	.
8c	.	16cc	.
.	.	16b-	.
8c	8r	16g	.
.	.	16cc	.
8c	16e	16g	.
.	16f	16a	.
=110	=110	=110	=110
4C	8g	16b-	8r
.	.	16cc	.
.	8r	16ee	16gg
.	.	16cc	16ff
4r	8c	16b-	8ee
.	.	16cc	.
.	8r	16ee	16ccc
.	.	16cc	16bb-
=111	=111	=111	=111
8FF	4f	16a	4aa
.	.	16cc	.
16A	.	16ff	.
16G	.	16cc	.
8F	8r	16a	4r
.	.	16cc	.
8E	16cc	16g	.
.	16b-	16cc	.
=112	=112	=112	=112
4F	8a	16a	4.r
.	.	16cc	.
.	16a	16ff	.
.	16g	16cc	.
4r	8f	16a	.
.	.	16cc	.
.	8r	16f	16aa
.	.	16cc	16ff
=113	=113	=113	=113
4EE	2r	16g	8ccc
.	.	16b-	.
.	.	16cc	8ccc
.	.	16b-	.
8r	.	16g	8ccc
.	.	16cc	.
16E	.	16g	8ccc
16F	.	16a	.
=114	=114	=114	=114
8G	8r	16b-	4cc
.	.	16cc	.
8r	16g	16ee	.
.	16f	16cc	.
8C	8e	16b-	8r
.	.	16cc	.
8r	16c	16ee	16bb-
.	16B-	16cc	16ee
=115	=115	=115	=115
2F	2A	16a	8ff
.	.	16cc	.
.	.	16ff	8aa
.	.	16cc	.
.	.	16a	8ccc
.	.	16cc	.
.	.	16a	8aa
.	.	16cc	.
=116	=116	=116	=116
2F#	2a	16a	[2eee-
.	.	16cc	.
.	.	16ee-	.
.	.	16cc	.
.	.	16ee-	.
.	.	16cc	.
.	.	16ee-	.
.	.	16cc	.
=117	=117	=117	=117
2G	2g	16g	8eee-]
.	.	16cc	.
.	.	16ee-	8ccc
.	.	16cc	.
.	.	16ee-	8gg
.	.	16cc	.
.	.	16ee-	8ee-
.	.	16cc	.
=118	=118	=118	=118
2A-	2g-	16g-	[2cc
.	.	16cc	.
.	.	16ee-	.
.	.	16cc	.
.	.	16ee-	.
.	.	16cc	.
.	.	16ee-	.
.	.	16cc	.
=119	=119	=119	=119
2A	2f	16f	8cc]
.	.	16cc	.
.	.	16ee-	8gg
.	.	16cc	.
.	.	16ee-	8ff
.	.	16cc	.
.	.	16ee-	8ee-
.	.	16cc	.
=120	=120	=120	=120
4B-	[2B-	4b-	16dd
.	.	.	16b-
.	.	.	16a
.	.	.	16b-
4r	.	8r	16dd
.	.	.	16b-
.	.	16B-	16dd
.	.	16c	16ee-
=121	=121	=121	=121
2r	2B-_	4d	16ff
.	.	.	16b-
.	.	.	16a
.	.	.	16b-
.	.	8r	16ff
.	.	.	16b-
.	.	16d	16ff
.	.	16e-	16gg
=122	=122	=122	=122
2r	2B-_	8f	16aa-
.	.	.	16bb-
.	.	8e-	16gg
.	.	.	16aa-
.	.	8d	16ff
.	.	.	16gg
.	.	8e-	16ee-
.	.	.	16ff
=123	=123	=123	=123
2r	2B-]	16f	16dd
.	.	16g	16ee-
.	.	16a-	16ff
.	.	16g	16ee-
.	.	16f	16dd
.	.	16a-	16cc
.	.	16g	16b-
.	.	16f	16a-
=124	=124	=124	=124
4E-	4e-	16g	4g
.	.	16e-	.
.	.	16d	.
.	.	16e-	.
8r	4r	16g	4r
.	.	16e-	.
16E-	.	16g	.
16F	.	16a-	.
=125	=125	=125	=125
4G	4.r	16b-	4.r
.	.	16e-	.
.	.	16d	.
.	.	16e-	.
8r	.	16b-	.
.	.	16e-	.
16G	16g	16b-	16bb-
16A-	16a-	16cc	16aa-
=126	=126	=126	=126
4B-	4b-	4dd-	16gg
.	.	.	16ee-
.	.	.	16dd
.	.	.	16ee-
4r	8r	8r	16gg
.	.	.	16ee-
.	16b-	16dd-	16gg
.	16a-	16cc	16aa-
=127	=127	=127	=127
2r	4g	4b-	16bb-
.	.	.	16ee-
.	.	.	16dd
.	.	.	16ee-
.	8r	8r	16bb-
.	.	.	16ee-
.	16g	16b-	16bb-
.	16f	16a-	16ccc
=128	=128	=128	=128
16CC	[2e	[2g	2ddd-
16C	.	.	.
16BB	.	.	.
16C	.	.	.
16BB	.	.	.
16C	.	.	.
16BB	.	.	.
16C	.	.	.
=129	=129	=129	=129
16CC	2e]	2g]	4ccc
16C	.	.	.
16BB	.	.	.
16C	.	.	.
16BB	.	.	4bb-
16C	.	.	.
16BB	.	.	.
16C	.	.	.
=130	=130	=130	=130
4FF	16f	4.f	4.aa
.	16ee-	.	.
.	16dd	.	.
.	16ee-	.	.
4r	16cc	.	.
.	16ee-	.	.
.	16cc	16a	16ccc
.	16b-	16g	16ddd
=131	=131	=131	=131
4FF	16a	4.f	8eee-
.	16ee-	.	.
.	16dd	.	8ccc
.	16ee-	.	.
4r	16cc	.	8aa
.	16ee-	.	.
.	16cc	16a	16ccc
.	16b-	16g	16ddd
=132	=132	=132	=132
4FF#	16a	4.f#	8eee-
.	16ee-	.	.
.	16dd	.	8ccc
.	16ee-	.	.
4r	16cc	.	8aa
.	16ee-	.	.
.	16cc	16a	16ccc
.	16b-	16g	16ddd
=133	=133	=133	=133
4FF#	16a	4.f#	8eee-
.	16ee-	.	.
.	16dd	.	8ccc
.	16ee-	.	.
4r	16cc	.	16aa
.	16ee-	.	16ccc
.	16dd	8f#	16bb-
.	16cc	.	16aa
=134	=134	=134	=134
16GG	4b-	4.g	4gg
16G	.	.	.
16F#	.	.	.
16G	.	.	.
16A	4r	.	4r
16G	.	.	.
16F	.	16g	.
16G	.	16b	.
=135	=135	=135	=135
16E-	8g	8cc	4.r
16G	.	.	.
16D	8g	8b	.
16G	.	.	.
16E-	8g	8cc	.
16G	.	.	.
16C	8g	8ee-	16ee-
16G	.	.	16cc
=136	=136	=136	=136
16BB-	4g	16dd	8gg
16G	.	16ee-	.
16AA	.	16cc	8gg
16G	.	16dd	.
16GG	4r	8b-	8gg
16G	.	.	.
16F	.	16g	8gg
16G	.	16b	.
=137	=137	=137	=137
16E-	8g	8cc	4gg
16G	.	.	.
16D	8g	8b	.
16G	.	.	.
16E-	8g	8cc	8r
16G	.	.	.
16C	8g	8ee-	16ee-
16G	.	.	16cc
=138	=138	=138	=138
16BB-	4g	16dd	8dd
16G	.	16ee-	.
16AA	.	16cc	8ff#
16G	.	16dd	.
16BB-	4r	8b-	8gg
16G	.	.	.
16GG	.	8B-	8bb-
16G	.	.	.
=139	=139	=139	=139
4AA	[2a	4A	16cc#
.	.	.	16bb-
.	.	.	16aa
.	.	.	16gg#
4C#	.	4e	16aa
.	.	.	16ee
.	.	.	16ff
.	.	.	16gg
=140	=140	=140	=140
4D	4a]	4f	16ff
.	.	.	16dd
.	.	.	16cc#
.	.	.	16dd
4r	4r	4r	16ff
.	.	.	16dd
.	.	.	16aa
.	.	.	16ff
=141	=141	=141	=141
4.D	4.d	4.f	16ddd
.	.	.	16aa
.	.	.	16fff
.	.	.	16eee
.	.	.	16ddd
.	.	.	16ccc
8D#	8d#	8f#	16bb
.	.	.	16aa
=142	=142	=142	=142
4E	4e	4.e	16gg#
.	.	.	16ee
.	.	.	16dd#
.	.	.	16ee
4r	8r	.	16ff#
.	.	.	16ee
.	8dd	8e	16gg#
.	.	.	16ee
=143	=143	=143	=143
4.r	16cc	16ee	16aa
.	16dd	16ff	16ee
.	16b	16dd	16bb
.	16cc	16ee	16ee
.	8a	8cc	16ccc
.	.	.	16ee
8c	8r	8a	16eee
.	.	.	16ee
=144	=144	=144	=144
16B	4.r	8g#	16ddd
16c	.	.	16eee
16A	.	8a	16ccc
16B	.	.	16ddd
8G#	.	8b	16bb
.	.	.	16ee
8r	8dd	8e	16ff#
.	.	.	16gg#
=145	=145	=145	=145
4.r	16cc	16ee	16aa
.	16dd	16ff	16ee
.	16b	16dd	16bb
.	16cc	16ee	16ee
.	8a	8cc	16ccc
.	.	.	16ee
8C	8r	8a	16eee
.	.	.	16ee
=146	=146	=146	=146
16BB	2r	8g#	16ddd
16C	.	.	16eee
16AA	.	8a	16ccc
16BB	.	.	16ddd
8GG#	.	8b	16bb
.	.	.	16ee
8D	.	8e	16ff#
.	.	.	16gg#
=147	=147	=147	=147
8C	2e	16ee	16aa
.	.	16ff	16ee
8BB	.	16dd	16bb
.	.	16ee	16ee
8AA	.	8cc	16ccc
.	.	.	16bb
8C	.	8ee	16aa
.	.	.	16gg
=148	=148	=148	=148
4D	4.d	4a	16ff#
.	.	.	16dd
.	.	.	16ee-
.	.	.	16dd
4r	.	8r	16ee
.	.	.	16dd
.	8d	8cc	16ff#
.	.	.	16dd
=149	=149	=149	=149
4.r	16dd	16b	16gg
.	16ee	16cc	16dd
.	16cc	16a	16aa
.	16dd	16b	16dd
.	8b	8g	16bb
.	.	.	16dd
8B	8g	8r	16ddd
.	.	.	16dd
=150	=150	=150	=150
16A	8f#	4.r	16ccc
16B	.	.	16ddd
16G	8g	.	16bb
16A	.	.	16ccc
8F#	8a	.	16aa
.	.	.	16dd
8r	8d	8cc	16ee
.	.	.	16ff#
=151	=151	=151	=151
4.r	16dd	16b	16gg
.	16ee	16cc	16dd
.	16cc	16a	16aa
.	16dd	16b	16dd
.	8b	8g	16bb
.	.	.	16dd
8BB	8g	8r	16ddd
.	.	.	16dd
=152	=152	=152	=152
16AA	8f#	4.r	16ccc
16BB	.	.	16ddd
16GG	8g	.	16bb
16AA	.	.	16ccc
8FF#	8a	.	16aa
.	.	.	16dd
8C	8d	8a	16ee
.	.	.	16ff#
=153	=153	=153	=153
4BB	4g	4b	16gg
.	.	.	16dd
.	.	.	16gg
.	.	.	16aa
4r	8r	8r	16bb
.	.	.	16gg
.	16b	16dd	16bb
.	16a	16cc	16ccc
=154	=154	=154	=154
4GG	16g	16b	4ddd
.	16d	16g	.
.	16g	16b	.
.	16a	16cc	.
4r	16b	16dd	8r
.	16g	16b	.
.	16b	16dd	16gg
.	16a	16cc	16aa
=155	=155	=155	=155
4GG	4g	4b	16bb
.	.	.	16gg
.	.	.	16bb
.	.	.	16ccc
4r	8r	8r	16ddd
.	.	.	16bb
.	16dd	16ff	16ddd
.	16cc	16ee	16eee
=156	=156	=156	=156
4GG	16b	16dd	4fff
.	16g	16b	.
.	16b	16dd	.
.	16cc	16ee	.
4r	16dd	16ff	8r
.	16b	16dd	.
.	16dd	16ff	16ddd
.	16cc	16ee	16eee
=157	=157	=157	=157
8GG	8b	8dd	8fff
8r	8r	8r	8r
8GG	8b	8ff	8ddd
8r	8r	8r	8r
=158	=158	=158	=158
8GG	8dd	8ff	8bb
4.r	4.r	4.r	4.r
=159	=159	=159	=159
8GG	8d	16B	8ff
.	.	16c	.
8r	8r	16B	8r
.	.	16G	.
8GG	8f	16d	8dd
.	.	16e	.
8r	8r	16d	8r
.	.	16G	.
=160	=160	=160	=160
4.GG	4.d	4.f	4.b
8r	16c	16e	8r
.	16d	16f	.
=161	=161	=161	=161
2r	8e	8g	4.r
.	8e	8g	.
.	8e	8g	.
.	8e	8g	8cc
=162	=162	=162	=162
8r	4.f	4.g	16b
.	.	.	16cc
16G	.	.	16dd
16A	.	.	16b
8B	.	.	8g
8r	16c	16e	8r
.	16d	16f	.
=163	=163	=163	=163
2r	8e	8g	4.r
.	8e	8g	.
.	8e	8g	.
.	8e	8g	8gg
=164	=164	=164	=164
8r	4.f	4.g	16ff
.	.	.	16ee
16B	.	.	16dd
16c	.	.	16cc
8d	.	.	8b
8r	16c	16e	8r
.	16d	16f	.
=165	=165	=165	=165
2r	8e	8g	4.r
.	8e	8g	.
.	8e	8g	.
.	8e	8g	8cc
=166	=166	=166	=166
4.r	4f	4.g	16b
.	.	.	16cc
.	.	.	16dd
.	.	.	16b
.	8e	.	8cc
8C	8c	8G	8ee
=167	=167	=167	=167
8D	8c	4A	4g
8D	16B	.	.
.	16c	.	.
8GG	8d	4B	8.f
8GG	8d	.	.
.	.	.	32e
.	.	.	32f
=168	=168	=168	=168
16CC	4c	4c	4e
16C	.	.	.
16BB	.	.	.
16C	.	.	.
16D	8r	4r	8.r
16C	.	.	.
16BB	16E	.	.
16C	16G	.	32cc
.	.	.	32ee
=169	=169	=169	=169
16AA	8F	8cc	8ff
16C	.	.	.
16GG	8G	8cc	8ee
16C	.	.	.
16AA	8A	8cc	8ff
16C	.	.	.
16FF	8F	8cc	8aa
16C	.	.	.
=170	=170	=170	=170
16EE	4C	4cc	16gg
16C	.	.	16aa
16DD	.	.	16ff
16C	.	.	16gg
16CC	8r	4r	8ee
16C	.	.	.
16BB-	16E	.	16cc
16C	16G	.	16ee
=171	=171	=171	=171
16AA	8F	8cc	8ff
16C	.	.	.
16GG	8G	8cc	8ee
16C	.	.	.
16AA	8A	8cc	8ff
16C	.	.	.
16FF	8F	8cc	8aa
16C	.	.	.
=172	=172	=172	=172
16EE	4C	4cc	16gg
16C	.	.	16aa
16DD	.	.	16ff
16C	.	.	16gg
16CC	8r	4r	8ee
16C	.	.	.
16BB-	16e	.	16cc
16C	16g	.	16ee
=173	=173	=173	=173
16AA	8f	8cc	8ff
16C	.	.	.
16GG	8g	8cc	8ee
16C	.	.	.
16AA	8a	8cc	8ff
16C	.	.	.
16FF	8f	8cc	8aa
16C	.	.	.
=174	=174	=174	=174
16EE	8e	[2cc	8gg
16C	.	.	.
16DD	8d	.	8ff#
16C	.	.	.
16EE	8c	.	8gg
16C	.	.	.
16CC	8e	.	8bb-
16C	.	.	.
=175	=175	=175	=175
8FF	8f	8cc]	16aa
.	.	.	16bb-
8F	8e	8cc#	16gg
.	.	.	16aa
8F	8f	8dd	16ff
.	.	.	16gg
8F	8g	8cc#	16ee
.	.	.	16ff
=176	=176	=176	=176
8F	4a	4dd	16dd
.	.	.	16ee
8F	.	.	16ff
.	.	.	16ee
8F#	8r	8r	16dd
.	.	.	16cc
8F#	8c	8a	16b
.	.	.	16a
=177	=177	=177	=177
[2GG	4B	4d	4g
.	8r	8r	8r
.	16B	16d	16g
.	16c	16e	16a
=178	=178	=178	=178
2GG_	8d	8f	16b
.	.	.	16cc
.	8d	8f	16dd
.	.	.	16cc
.	8d	8f	16b
.	.	.	16cc
.	16c	16e	16a
.	16d	16f	16b
=179	=179	=179	=179
2GG_	8e	8g	16cc
.	.	.	16dd
.	8e	8g	16ee
.	.	.	16dd
.	8e	8g	16cc
.	.	.	16dd
.	16d	16f	16b
.	16e	16g	16cc
=180	=180	=180	=180
2GG_	8f	8a	16dd
.	.	.	16ee
.	8f	8a	16ff
.	.	.	16ee
.	8f	8a	16dd
.	.	.	16ee
.	8e	8g	16cc
.	.	.	16dd
=181	=181	=181	=181
2GG_	8d	8f	16b
.	.	.	16cc
.	8d	8f	16dd
.	.	.	16cc
.	8d	8f	16b
.	.	.	16cc
.	8c	8e	16a
.	.	.	16b
=182	=182	=182	=182
2GG]	2B	2d	16g
.	.	.	16a
.	.	.	16b
.	.	.	16a
.	.	.	16g
.	.	.	16a
.	.	.	16f
.	.	.	16g
=183	=183	=183	=183
8C	2c	4e	16e
.	.	.	16cc
8C	.	.	16b
.	.	.	16cc
8E	.	4g	16b
.	.	.	16cc
8E	.	.	16ee
.	.	.	16cc
=184	=184	=184	=184
8F	4c	4c	16b
.	.	.	16a
8F	.	.	16gg#
.	.	.	16aa
8F	4r	8r	16gg#
.	.	.	16aa
8F	.	16a	16ff
.	.	16f	16dd
=185	=185	=185	=185
8G	8r	4e	4cc
8G	8g	.	.
8G	8B	8f	8dd
8G	8B	16e	16cc
.	.	16f	16dd
=186	=186	=186	=186
4C	4c	4e	4cc
8r	8r	4r	4r
16CC	16E	.	.
16DD	16F	.	.
=187	=187	=187	=187
8EE	8G	2r	2r
8EE	8G	.	.
16EE	16G	.	.
16CC	16E	.	.
16DD	16F	.	.
16EE	16G	.	.
=188	=188	=188	=188
8FF	8A	4.r	4.r
8FF	8A	.	.
8FF	8A	.	.
8r	8r	16g	16b
.	.	16a	16cc
=189	=189	=189	=189
2r	2r	8b	8dd
.	.	8b	8dd
.	.	16b	16dd
.	.	16g	16b
.	.	16a	16cc
.	.	16b	16dd
=190	=190	=190	=190
2r	4.r	8cc	8ee
.	.	8cc	8ee
.	.	8cc	8ee
.	16c	16e	8r
.	16d	16f	.
=191	=191	=191	=191
2r	16e	16g	4r
.	16f	16a	.
.	16e	16g	.
.	16f	16a	.
.	16e	16g	[4cc
.	16c	16e	.
.	16d	16f	.
.	16e	16g	.
=192	=192	=192	=192
2r	16f	16a	8cc]
.	16g	16b	.
.	16f	16a	8cc#
.	16g	16b	.
.	16f	16a	[4dd
.	16d	16f	.
.	16e	16g	.
.	16f	16a	.
=193	=193	=193	=193
2r	16g	16b	8dd]
.	16a	16cc	.
.	16g	16b	8dd#
.	16a	16cc	.
.	16g	16b	[4ee
.	16e	16g	.
.	16f	16a	.
.	16g	16b	.
=194	=194	=194	=194
2r	16a	16cc	16ee]
.	16f	16a	16gg
.	16g	16b	16ff
.	16a	16cc	16ee
.	16b	16dd	8dd
.	16g	16b	.
.	16a	16cc	8gg
.	16b	16dd	.
=195	=195	=195	=195
8r	4cc	4.cc	4.ee
8c	.	.	.
8A	4r	.	.
8F	.	8dd	8ff
=196	=196	=196	=196
4G	8r	4b	8dd
.	8g	.	8gg
4r	8f#	4r	8ff#
.	8f	.	8ff
=197	=197	=197	=197
2r	8e	4.cc	4.ee
.	8c	.	.
.	8A	.	.
.	8F	8dd	8ff
=198	=198	=198	=198
2r	4G	8b	8dd
.	.	8g	8gg
.	4r	8f#	8ff#
.	.	8f	8ff
=199	=199	=199	=199
8r	8r	4.e	4.ee
8G#	8B	.	.
8G#	8B	.	.
8A	8c	8f	8ff
=200	=200	=200	=200
8F	8B	8d	8dd
8E	8g	8cc#	8gg
8D	8a	8dd	8ff#
8G	8d	8b	8ff
=201	=201	=201	=201
8C	8g	8cc	8ee
8F	4a	4a	8dd
8F	.	.	8ff
8F	8f	8a	8dd
=202	=202	=202	=202
[2G	8e	8g	2cc
.	8e-	8f#	.
.	8d	8f	.
.	8c	8e	.
=203	=203	=203	=203
8G]	2B	2f	2dd
8A-	.	.	.
8G	.	.	.
8GG	.	.	.
=204	=204	=204	=204
4.c	8c	4.ee	4cc
.	8c	.	.
.	8A	.	4r
8d	8F	8ff	.
=205	=205	=205	=205
4B	8G	8dd	2r
.	8g	8gg	.
4r	8f#	8ff#	.
.	8f	8ff	.
=206	=206	=206	=206
8r	4e	8ee	4.eee
8C	.	4cc	.
8AA	4r	.	.
8FF	.	8dd	8fff
=207	=207	=207	=207
4GG	2r	8b	8ddd
.	.	8gg	8ggg
4r	.	8ff#	8fff#
.	.	8ff	8fff
=208	=208	=208	=208
8r	8r	4.ee	4.eee
8G#	8b	.	.
8G#	8b	.	.
8A	8cc	8ff	8fff
=209	=209	=209	=209
8F	8b	8dd	8ddd
8E	8g	8cc#	8ggg
8D	8a	8cc	8fff#
8GG	8dd	8b	8fff
=210	=210	=210	=210
8C	8cc	8cc	8eee
8F	4dd	4aa	8ddd
8F	.	.	8fff
8F	8f	8aa	8ddd
=211	=211	=211	=211
2G	8e	8gg	2ccc
.	8e-	8ff#	.
.	8d	8ff	.
.	8c	8ee	.
=212	=212	=212	=212
8AA-	2B	2ff	2ddd
8GG	.	.	.
8G	.	.	.
8GG	.	.	.
=213	=213	=213	=213
2FF#	8c	2ee-	16ccc
.	.	.	16ccc
.	4cc	.	16bb
.	.	.	16ccc
.	.	.	16ddd
.	.	.	16ccc
.	8cc	.	16eee-
.	.	.	16ccc
=214	=214	=214	=214
2GG	2cc	2ee	16r
.	.	.	16ccc
.	.	.	16bb
.	.	.	16ccc
.	.	.	16ddd
.	.	.	16ccc
.	.	.	16eee
.	.	.	16ccc
=215	=215	=215	=215
2AA	2cc	2ff	16r
.	.	.	16ccc
.	.	.	16bb
.	.	.	16ccc
.	.	.	16ddd
.	.	.	16ccc
.	.	.	16fff
.	.	.	16ccc
=216	=216	=216	=216
2EE	2cc	4.gg	16r
.	.	.	16ccc
.	.	.	16bb
.	.	.	16ccc
.	.	.	16eee
.	.	.	16ccc
.	.	8ee	16ggg
.	.	.	16ccc
=217	=217	=217	=217
[2FF	4cc	2cc	2aaa
.	4r	.	.
=218	=218	=218	=218
4FF]	2r	4dd	4bbb
4FF#	.	4ee-	4cccc
=219	=219	=219	=219
4GG	8cc	8ee	4G
.	4cc	4ee	.
4r	.	.	16ff#
.	.	.	16gg
.	[8cc	[8ee	16ff#
.	.	.	16gg
=220	=220	=220	=220
2r	8cc]	8ee]	16ff#
.	.	.	16gg
.	4cc	4ee	16ff#
.	.	.	16gg
.	.	.	16ccc
.	.	.	16gg
.	8cc	8cc	16ff
.	.	.	16ee
=221	=221	=221	=221
8GG	[2b	16d	[2dd
.	.	16f	.
8GG	.	16e	.
.	.	16f	.
8GG	.	16g	.
.	.	16f	.
8GG	.	16e	.
.	.	16f	.
=222	=222	=222	=222
8GG	2b]	16b	2dd]
.	.	16f	.
8GG	.	16e	.
.	.	16f	.
8GG	.	16g	.
.	.	16f	.
8GG	.	16e	.
.	.	16f	.
=223	=223	=223	=223
4C	4cc	4e	4cc
4r	8r	8r	4r
.	16c	16e	.
.	16d	16f	.
=224	=224	=224	=224
2r	8e	8g	4.r
.	8e	8g	.
.	8e	8g	.
.	8e	8g	8cc
=225	=225	=225	=225
8r	4.f	4.g	16b
.	.	.	16cc
16G	.	.	16dd
16A	.	.	16b
8B	.	.	8g
8r	16B	16d	8r
.	16c	16e	.
=226	=226	=226	=226
4.r	8d	8f	4.r
.	8d	8f	.
.	8d	8f	.
8GG	8d	8f	8b
=227	=227	=227	=227
16EE	4.c	4.e	4cc
16FF	.	.	.
16GG	.	.	.
16EE	.	.	.
8CC	.	.	4r
8r	16cc	16ee	.
.	16dd	16ff	.
=228	=228	=228	=228
2r	8ee	8gg	4.r
.	8ee	8gg	.
.	8ee	8gg	.
.	8ee	8gg	8ccc
=229	=229	=229	=229
8r	4.ff	4.gg	16bb
.	.	.	16ccc
16G	.	.	16ddd
16A	.	.	16eee
8B	.	.	8fff
8r	16B	16d	8r
.	16c	16e	.
=230	=230	=230	=230
4.r	8d	8f	4.r
.	8d	8f	.
.	8d	8f	.
8GG	8d	8f 8G	8d 8b
=231	=231	=231	=231
16EE	4c	4G 4e	4e 4cc
16FF	.	.	.
16GG	.	.	.
16EE	.	.	.
8CC	4r	4r	4r
8r	.	.	.
=232	=232	=232	=232
2r	2r	2r	2r
==	==	==	==
*-	*-	*-	*-
!!!RWG1: This file contains only pitch and duration data.
!!!RWG2: Transposing instruments are not transposed.
!!!RWG3: Spines may have incompatible meters.
!!!RWG4: Durations of rests and tied notes may be interpreted.
!!!RWG: Key is interpreted using the Humdrum key tool.
!!!GTL: 6 Quartetti ("Prussian")
!!!AFT: stage1
!!!END: 1997/04/15
!!!KEY: 3842243293
!!!EMD: Converted from MuseData to Humdrum Dec 16, 2000, by Andreas Kornstaedt using muse2kern.
!!!EMD: Manual editing by Craig Sapp, Nov 2001
